public/images/icons/baby.svg

<svg width="18" height="18" viewBox="0 0 18 18" fill="none" xmlns="http://www.w3.org/2000/svg">
<path d="M13.125 1.5C13.8126 1.50005 14.4839 1.71015 15.0488 2.10218C15.6138 2.49421 16.0455 3.04946 16.2862 3.6936C16.5269 4.33775 16.5651 5.04005 16.3957 5.7065C16.2263 6.37295 15.8573 6.97175 15.3382 7.42275C15.6045 8.148 15.75 8.9325 15.75 9.75C15.7494 10.7362 15.5328 11.7102 15.1153 12.6037C14.6979 13.4971 14.0897 14.2882 13.3336 14.9214C12.5775 15.5545 11.6919 16.0143 10.739 16.2684C9.78613 16.5224 8.78916 16.5646 7.81822 16.392C6.84728 16.2193 5.92597 15.836 5.1191 15.269C4.31222 14.702 3.63939 13.9651 3.14792 13.1101C2.65646 12.2552 2.35831 11.3029 2.27444 10.3203C2.19057 9.33769 2.32302 8.34865 2.66248 7.42275C2.29505 7.10345 2.00104 6.70844 1.80061 6.26482C1.60019 5.82121 1.4981 5.33949 1.50136 4.85271C1.50461 4.36593 1.61312 3.88562 1.81946 3.44472C2.02579 3.00382 2.32505 2.61278 2.69672 2.29841C3.06839 1.98405 3.50366 1.7538 3.97268 1.62347C4.4417 1.49314 4.93336 1.46581 5.41393 1.54336C5.8945 1.6209 6.35261 1.80149 6.75683 2.07273C7.16105 2.34397 7.50181 2.69944 7.75573 3.11475C8.57863 2.96121 9.42283 2.96121 10.2457 3.11475C10.5469 2.62127 10.9699 2.21354 11.4741 1.93075C11.9784 1.64796 12.5469 1.49963 13.125 1.5ZM13.125 3C12.5077 3 11.9437 3.3 11.5965 3.789L11.5252 3.897L10.9867 4.779L9.97048 4.58925C9.40955 4.48459 8.83537 4.47142 8.27023 4.55025L8.03323 4.58925L7.01623 4.7805L6.47623 3.8985C6.33825 3.67249 6.15395 3.47827 5.93549 3.32862C5.71702 3.17898 5.46933 3.07731 5.20873 3.03031C4.94813 2.9833 4.68053 2.99203 4.42355 3.05592C4.16657 3.1198 3.92603 3.2374 3.71778 3.40096C3.50953 3.56452 3.33828 3.77034 3.21532 4.00487C3.09235 4.23939 3.02046 4.4973 3.00437 4.76162C2.98828 5.02593 3.02837 5.29066 3.12198 5.53836C3.21559 5.78607 3.36061 6.01114 3.54748 6.19875L3.64573 6.291L4.42648 6.969L4.07023 7.94025C3.80649 8.66037 3.7037 9.42952 3.76912 10.1936C3.83453 10.9577 4.06655 11.6982 4.44886 12.363C4.83117 13.0278 5.35448 13.6008 5.982 14.0417C6.60952 14.4825 7.326 14.7805 8.08105 14.9148C8.83611 15.049 9.6114 15.0162 10.3524 14.8186C11.0934 14.6211 11.7822 14.2636 12.3702 13.7713C12.9582 13.279 13.4312 12.6638 13.756 11.9691C14.0808 11.2743 14.2494 10.5169 14.25 9.75C14.25 9.213 14.1697 8.688 14.0145 8.18775L13.9305 7.94025L13.5742 6.969L14.3542 6.291C14.6428 6.04051 14.848 5.70783 14.9422 5.33751C15.0365 4.96719 15.0154 4.5769 14.8817 4.21893C14.7479 3.86095 14.508 3.55238 14.1941 3.33453C13.8801 3.11668 13.5071 2.99996 13.125 3ZM7.49998 9.75C7.49998 10.1478 7.65802 10.5294 7.93932 10.8107C8.22063 11.092 8.60216 11.25 8.99998 11.25C9.39781 11.25 9.77934 11.092 10.0606 10.8107C10.3419 10.5294 10.5 10.1478 10.5 9.75H12C12 10.5457 11.6839 11.3087 11.1213 11.8713C10.5587 12.4339 9.79563 12.75 8.99998 12.75C8.20433 12.75 7.44127 12.4339 6.87866 11.8713C6.31605 11.3087 5.99998 10.5457 5.99998 9.75H7.49998Z" fill="#B1B1B1"/>
</svg>

<svg width="18" height="18" fill="none" xmlns="http://www.w3.org/2000/svg"><path d="M13.125 1.5a3.375 3.375 0 012.213 5.923 6.741 6.741 0 01-.223 5.18 6.75 6.75 0 01-12.453-5.18 3.375 3.375 0 115.094-4.308 6.788 6.788 0 012.49 0A3.371 3.371 0 0113.125 1.5zm0 1.5c-.617 0-1.181.3-1.528.789l-.072.108-.538.882-1.017-.19a5.287 5.287 0 00-1.7-.039l-.237.04-1.017.19-.54-.882a1.875 1.875 0 10-2.929 2.3l.099.093.78.678-.356.971a5.25 5.25 0 109.944.248l-.083-.248-.357-.971.78-.678A1.875 1.875 0 0013.125 3zM7.5 9.75a1.5 1.5 0 003 0H12a3 3 0 01-6 0h1.5z" fill="#B1B1B1"/></svg>
